X:72
T:Y Lleuan - The Louse
M:2/4
L:1/8
Q:160
C:Trad.
R:Processional
K:D
D/2E/2 | FF EE | F F2 D/2E/2 | FF EE |
F F2 D/2E/2 | FF EE | DD GG/2G/2 |
FF EE | DD2 ||
